packages/kaspersky-hexa-ui-icons/src/iconsSVGs/48/Danger.svg

<svg xmlns="http://www.w3.org/2000/svg" width="48" height="48" fill="none" viewBox="0 0 48 48"><path fill="#ed2939" d="M23 33h2v2h-2zm2-20h-2v16h2z"/><path fill="#ed2939" fill-rule="evenodd" d="M46 2H2v44h44zM4 44V4h40v40z" clip-rule="evenodd"/></svg>

<svg width="48" height="48" viewBox="0 0 48 48" fill="none" xmlns="http://www.w3.org/2000/svg">
<path d="M23 33H25V35H23V33Z" fill="#ED2939"/>
<path d="M25 13H23V29H25V13Z" fill="#ED2939"/>
<path fill-rule="evenodd" clip-rule="evenodd" d="M46 2H2V46H46V2ZM4 44V4H44V44H4Z" fill="#ED2939"/>
</svg>
